X:1
T:De retourner, mon amy
T:Jean de Castro
T:Source : La fleur des chansons à 3---Louvain---P.Phalèse---1574. Editor : André Vierendeels (14/08/18) Notes : Original clefs : C1, C3, C4 Original note values have been halved Editorial accidentals above the staff 
T:De retourner, mon amy
T:©
T:©
T:©
T:©
C:Jean de Castro
Z:©
%%score [ 1 [ 2 3 ] ]
L:1/8
Q:1/4=80
M:2/2
K:F
V:1 treble nm="Soprano" snm="S"
V:2 treble nm="Alto" snm="A"
V:3 treble-8 nm="Tenor" snm="T"
V:1
 z4 F4 | G2 G2 A2 c2 | F2 G2 A2 A2 | G2 A2 Bc3/2B/4A/4B | c4 z2 F2 | G2 G2 A2 F2 | A2 c2 BA G2 | %7
w: De|re- tour- ner, mon|a- my, ie te|pri- * * * * * *|e, de|re- tour- ner, mon|a- my, ie te pri-|
 A4 z4 | z4 z2 F2 | FGAB c2 G2 | A2 c2 d2 cB- | BA G2 A c2 A- | AB G2 z4 | z2 c2 A2 B2 | %14
w: e,|pour|con- * * * * ten-|ter l'es- prit bon de|_ ta my- e, car sans|_ ce- la,|car sans ce-|
 G c2 A2 AAG | AcAB c2 AB- | BAGG A4 | c8 | c6 c2 | A4 G4 | A3 B c2 d2- | d2 c4 B2 | c4 z2 c2 | %23
w: la, ay- se ne puis a-|voir, car sans ce- la, ay- se|_ ne puis a- voir,|tri-|ste vi-|vray, ie|le _ _ te|_ fais sca-|voir, si|
 A>G F2 A c2 d | BA G2 AcA>G | FG E2 F2 G2- | GF G2 A4 | z2 c2 A>G F2 | A c2 d BA G2 | %29
w: ne- te voy, car i'en ay|grand en vy- e, car i'en ay|grand en- vy- * *|* * * e,|si ne te voy,|car i'en ay grand en- vy-|
 AcA>G FG E2 | F2 G3 F G2 | A8 |] %32
w: e, car i'en ay grand en- vy-||e.|
V:2
 F4 D2 D2 | C2 C2 F,2 A,2 | B,2 B,2 F,G,A,B, | C2 FE DC D2 | C2 z C D2 D2 | E F2 E F2 z C | %6
w: De re- tour-|ner, mon amy, ie|te pri- * * * *||e, de re- tour-|ner, mon a- my, mon|
 F2 A2 GF E2 | F4 z2 C2 | FEFG A2 D2 | A2 F4 E2 | F2 A2 B2 AG | z F E2 F2 z F | D2 E2 C2 z D- | %13
w: a- my, ie te pri-|e, pour|con- * * * * ten-|ter l'es- prit|bon, l'es- prit bon de|t'a- my- e, car|sans ce- la, car|
 D G2 E F2 z D | EGAD FEFD | CCFG A2 z G | DFFE F4 | z2 A2 G2 F2 | F,2 F,2 C2 F,2 | F4 z2 E2- | %20
w: _ sans ce- la, car|sans ce- la, ay- se ne puis a-|voir, car sans ce- la, ay-|se ne puis a- voir,|tri- ste vi-|vray, ti- ste vi-|vray, ie|
 E2 F2 G2 A2- | A2 A2 F4 | z2 G2 E>D C2 | z C D2 F2 E^F |"^-natural" G F2 E F2 z F | D>DG C2 D2 E | %26
w: _ te le fais|_ sca- voir,|si ne te voy,|car i'en ay grand en-|vy- * * e, car|i'en ay grand en- vy- *|
 CF E2 F2 z F | D>D C2 z C D2 | F2 E^F G F2 E | F2 z F D>DGC- | C D2 E CF E2 | F8 |] %32
w: * * * e, si|ne te voy, car i'en|ay grand en- vy- * *|e, car i'en ay grand en-|* vy- * * * *|e.|
V:3
 z8 | z4 f4 | d2 d2 c4 | z2 F2 G2 G2 | A2 A2 B2 d2 | cB c2 F4 | z4 z2 C2 | FGAB c2 A2 | %8
w: |De|re- tour- ner,|de re- tour-|ner, mon a- my,|ie te pri- e,|pour|con- * * * * ten-|
 Bcde f2 B2 | F3 G AB c2 | F2 f2 z BFG | BF c2 F4 | z2 c2 A2 B2 | G2 z A d2 G2 | c2 f2 dcdB | %15
w: ter, _ _ _ _ pour|con- * * * *|ten- ter, l'es- prit bon|de t'a- my- e,|car sans ce-|la, car sans ce-|la, ay- se ne puis a-|
 A2 z2 z F2 G- | GABc F4 | z2 F2 E2 F2 | c2 f2 e2 f2 | FGAB c4- | c2 d2 e2 d2 | f4 d4 | c4 z4 | %23
w: voir, ay- se|_ ne puis a- voir,|tri- ste vi-|vray, tri- ste vi-|vray, _ _ _ _|_ ie te le|fais sca-|voir,|
 z8 | z2 c2 A>G F2 | z G2 A2 B2 c- | cd c2 F4 | z8 | z4 z2 c2 |"^-natural" A>G F2 z G2 A- | %30
w: |si ne te voy,|car i'en ay grand|_ en- vy- e,||si|ne te voy, car i'en|
 A B2 c2 d c2 | F8 |] %32
w: _ ay grand en- vy-|e.|

